X:7059
T:The Man of Aran
O:england
C:Trad
R:Reel
M:C
K:Cm
L:1/8
Gcgf eccc | f3 e dBBB | Gcgf eccc | dfed eccc |
gcfc eccc | f3 e dBBB |(3cde (3def e2 (3fga |1 gggf eccB :|2 gggf eccd
|
efge Bege | cdec fdcd | eBGE GBeB | dfed eccd |
e2 ge Bege | cdec fdcd | (3cde (3def e2 (3fga |1 gggf eccd:|2 gggf eccB
|


